X:1
T:Title
%%score 1 { 2 | 3 }
L:1/8
Q:1/4=90
M:3/4
K:G
V:1 treble nm="Grand Piano, Soprano"
V:2 treble nm="Choir Pad, Trusting Thee"
V:3 bass 
V:1
 [DG][GA] [GB]3 G | [FB][FA] [=Fd]4 | [EG][EA] [DB]3 [GB] | [FB][FA] G4 | G[GA] [GB]3 [GB] | %5
w: By~James~Ramsey~Murray * * *|||||
 [FB][FA] [=Fd]4 | [EG][EA] [DB]3 [GB] | [FB][FA] G4 | GG [Ge]3 [Ge] | [Gc][Ge] [Gd]4 | %10
w: |||||
 [GB][FA] G3 [DA] | [GB][Gd] [FA]4 | BB G4 | [GB][Gd] [Ge]4 | [EG][EA] [DB]3 [GB] | [FB][FA] G4- | %16
w: ||||||
 G4 z2 |] %17
w: |
V:2
 B,C D3 D | DD D4 | CC G,3 D | DC B,4 | B,C D3 D | DD D4 | CC G,3 D | DC[K:bass] B,4 | B,B, C3 C | %9
 CC B,4 | DC B,3 D | DD D4 | DD B,4 | DB, C4 | ^CC D3 D | DC B,4- | B,4 z2 |] %17
V:3
 G,G, G,3 G, | D,C, B,,4 | C,C, D,3 D, | D,D, G,4 | G,G, G,3 G, | D,C, B,,4 | C,C, D,3 D, | %7
 D,D, G,4 | G,G, C,3 C, | E,C, G,4 | D,D, E,3 E, | G,B,, D,4 | z6 | G,G, C,4 | E,E, D,3 D, | %15
 D,D, G,4- | G,4 z2 |] %17

